assets/img/card-3.svg

<svg width="220" height="160" viewBox="0 0 220 160" fill="none" xmlns="http://www.w3.org/2000/svg">
<path d="M72.7016 37.9551C73.0038 33.0189 72.5303 28.2036 72.4195 23.2875C72.349 20.2653 69.9816 18.583 69.5081 16.7294C68.9574 14.5601 69.169 12.5017 70.1428 10.5541C70.3241 10.1847 70.623 10 71.0394 10L150.996 10.0101C152.131 10.0101 152.786 10.5675 152.961 11.6823C153.434 14.7247 153.313 17.1323 150.724 19.3083C150.503 19.4947 150.326 19.7274 150.204 19.9901C150.082 20.2529 150.019 20.5393 150.019 20.8295L149.938 37.4112C149.938 38.1633 150.311 38.5764 151.057 38.6502C153.192 38.8719 155.519 38.9827 158.038 38.9827C167.192 38.9827 176.345 39.0163 185.499 39.0834C189.468 39.1036 189.327 42.569 189.317 45.9135C189.257 75.954 189.324 106.001 189.519 136.055C189.539 139.225 190.53 140.985 192.491 141.334C194.196 141.643 195.033 142.664 194.999 144.396L194.918 148.174C194.892 149.759 194.086 150.551 192.501 150.551L27.2581 150.622C25.7134 150.622 24.9612 149.853 25.0015 148.315L25.1124 143.731C25.1294 143.093 25.375 142.482 25.8042 142.01C26.2334 141.538 26.8174 141.237 27.4495 141.163L30.0184 140.84C30.4146 140.793 30.6127 140.568 30.6127 140.165L30.6631 42.8611C30.6631 41.9019 31.042 40.9814 31.7175 40.3002C32.393 39.6191 33.3103 39.2324 34.2695 39.2245C45.3509 39.1237 56.5061 39.0532 67.7351 39.0129C68.944 39.0062 70.4014 38.8652 72.1072 38.5898C72.4766 38.5361 72.6747 38.3245 72.7016 37.9551ZM104.009 36.0216C104.012 35.8655 103.984 35.7104 103.927 35.5651C103.87 35.4199 103.784 35.2873 103.676 35.175C103.567 35.0627 103.438 34.9729 103.295 34.9106C103.152 34.8484 102.998 34.8149 102.841 34.8122L86.8263 34.5326C86.6702 34.5299 86.5151 34.558 86.3699 34.6152C86.2247 34.6724 86.0921 34.7577 85.9798 34.8661C85.8675 34.9746 85.7777 35.1041 85.7154 35.2472C85.6532 35.3904 85.6198 35.5444 85.6171 35.7005L85.3364 51.776C85.3337 51.9321 85.3617 52.0871 85.4189 52.2324C85.4761 52.3776 85.5614 52.5102 85.6698 52.6225C85.7782 52.7348 85.9077 52.8247 86.0509 52.8869C86.1941 52.9492 86.3481 52.9826 86.5042 52.9853L102.519 53.2649C102.675 53.2676 102.83 53.2396 102.976 53.1823C103.121 53.1251 103.254 53.0399 103.366 52.9314C103.478 52.823 103.568 52.6935 103.63 52.5503C103.692 52.4071 103.726 52.2531 103.729 52.097L104.009 36.0216ZM136.958 35.944C136.96 35.6127 136.83 35.2941 136.598 35.0582C136.365 34.8223 136.048 34.6885 135.717 34.6862L119.922 34.5758C119.59 34.5735 119.272 34.7029 119.036 34.9355C118.8 35.1682 118.666 35.485 118.664 35.8162L118.554 51.5916C118.551 51.9229 118.681 52.2415 118.913 52.4774C119.146 52.7133 119.463 52.8471 119.794 52.8494L135.59 52.9598C135.921 52.9621 136.239 52.8327 136.475 52.6C136.711 52.3674 136.845 52.0506 136.847 51.7193L136.958 35.944ZM64.3074 61.7541C64.307 61.5199 64.2604 61.2881 64.1705 61.072C64.0805 60.8558 63.9488 60.6595 63.7829 60.4942C63.6171 60.3289 63.4203 60.1979 63.2038 60.1087C62.9873 60.0194 62.7553 59.9737 62.5212 59.9741L47.9543 59.9995C47.7201 59.9999 47.4883 60.0465 47.2722 60.1364C47.056 60.2264 46.8596 60.3581 46.6944 60.524C46.5291 60.6898 46.3981 60.8866 46.3088 61.1031C46.2196 61.3196 46.1739 61.5516 46.1743 61.7857L46.1997 76.3325C46.2001 76.5666 46.2466 76.7984 46.3366 77.0146C46.4266 77.2308 46.5583 77.4271 46.7242 77.5924C46.89 77.7577 47.0868 77.8887 47.3033 77.9779C47.5198 78.0671 47.7517 78.1128 47.9859 78.1124L62.5528 78.087C62.787 78.0866 63.0187 78.0401 63.2349 77.9501C63.4511 77.8601 63.6474 77.7284 63.8127 77.5626C63.978 77.3967 64.109 77.1999 64.1982 76.9834C64.2875 76.7669 64.3332 76.535 64.3328 76.3008L64.3074 61.7541ZM136.901 61.4126C136.897 61.0867 136.764 60.7754 136.532 60.5474C136.299 60.3193 135.985 60.1931 135.659 60.1966L119.824 60.3624C119.662 60.3641 119.503 60.3975 119.354 60.4608C119.206 60.5242 119.071 60.6161 118.958 60.7314C118.845 60.8467 118.756 60.9832 118.696 61.1329C118.636 61.2827 118.606 61.4428 118.607 61.6042L118.772 77.2784C118.775 77.6043 118.908 77.9156 119.141 78.1436C119.374 78.3717 119.688 78.4978 120.013 78.4944L135.849 78.3286C136.01 78.3269 136.17 78.2935 136.318 78.2302C136.467 78.1668 136.601 78.0749 136.714 77.9596C136.827 77.8443 136.916 77.7078 136.976 77.5581C137.036 77.4083 137.067 77.2482 137.065 77.0868L136.901 61.4126ZM173.864 61.4025C173.867 61.0659 173.737 60.7417 173.502 60.5012C173.266 60.2606 172.945 60.1235 172.608 60.12L156.894 59.9554C156.727 59.9536 156.562 59.9847 156.407 60.0469C156.252 60.1091 156.111 60.2011 155.992 60.3177C155.873 60.4343 155.778 60.5733 155.713 60.7266C155.647 60.8799 155.613 61.0446 155.611 61.2113L155.449 76.7042C155.445 77.0408 155.576 77.365 155.811 77.6056C156.047 77.8461 156.368 77.9832 156.705 77.9867L172.419 78.1513C172.586 78.1531 172.751 78.122 172.906 78.0598C173.061 77.9976 173.201 77.9056 173.321 77.789C173.44 77.6724 173.535 77.5334 173.6 77.3801C173.665 77.2268 173.7 77.0621 173.702 76.8954L173.864 61.4025ZM103.739 62.1023C103.734 61.6835 103.566 61.2832 103.271 60.9861C102.976 60.689 102.576 60.5185 102.158 60.5107L87.2483 60.2185C87.0341 60.2145 86.8213 60.2532 86.6222 60.3324C86.4232 60.4116 86.2419 60.5297 86.089 60.6798C85.9361 60.8299 85.8147 61.0089 85.7318 61.2065C85.6489 61.404 85.6062 61.6161 85.6063 61.8304L85.5761 76.7498C85.5761 77.1773 85.7459 77.5873 86.0481 77.8896C86.3504 78.1918 86.7604 78.3617 87.1879 78.3617L102.309 78.3717C102.522 78.3718 102.733 78.3294 102.93 78.2471C103.127 78.1649 103.306 78.0444 103.456 77.8925C103.606 77.7407 103.724 77.5607 103.804 77.3628C103.884 77.1649 103.923 76.9531 103.921 76.7398L103.739 62.1023ZM103.912 86.616C103.915 86.1458 103.731 85.6935 103.401 85.3587C103.071 85.0239 102.621 84.8339 102.151 84.8306L87.3427 84.7273C86.8725 84.724 86.4202 84.9077 86.0854 85.2378C85.7506 85.568 85.5607 86.0177 85.5574 86.4879L85.4542 101.276C85.4509 101.746 85.6345 102.199 85.9647 102.533C86.2948 102.868 86.7445 103.058 87.2147 103.061L102.023 103.165C102.493 103.168 102.946 102.984 103.28 102.654C103.615 102.324 103.805 101.874 103.808 101.404L103.912 86.616ZM137.156 86.9702C137.165 86.4092 136.95 85.8677 136.56 85.4648C136.169 85.0619 135.635 84.8306 135.074 84.8218L120.771 84.597C120.493 84.5927 120.217 84.6431 119.959 84.7453C119.7 84.8476 119.465 84.9998 119.265 85.1931C119.066 85.3864 118.906 85.6172 118.796 85.8721C118.686 86.1271 118.627 86.4013 118.622 86.6791L118.396 101.103C118.387 101.664 118.601 102.206 118.992 102.609C119.382 103.011 119.917 103.243 120.478 103.252L134.781 103.476C135.059 103.481 135.335 103.43 135.593 103.328C135.851 103.226 136.087 103.074 136.286 102.88C136.486 102.687 136.645 102.456 136.756 102.201C136.866 101.946 136.925 101.672 136.929 101.394L137.156 86.9702ZM46.2172 101.995C46.2172 102.42 46.386 102.827 46.6864 103.128C46.9868 103.428 47.3942 103.597 47.819 103.597L62.8896 103.627C63.1034 103.627 63.315 103.584 63.512 103.501C63.709 103.418 63.8874 103.297 64.0367 103.144C64.1859 102.991 64.3031 102.809 64.3812 102.61C64.4592 102.411 64.4967 102.199 64.4913 101.985L64.1589 86.9648C64.151 86.5452 63.9787 86.1455 63.6792 85.8517C63.3797 85.5578 62.9768 85.3932 62.5571 85.3933L47.819 85.4134C47.3942 85.4134 46.9868 85.5822 46.6864 85.8826C46.386 86.1829 46.2172 86.5904 46.2172 87.0152V101.995ZM173.713 87.2066C173.705 86.7966 173.54 86.4053 173.251 86.1144C172.962 85.8235 172.571 85.6554 172.161 85.6451L157.151 85.2925C156.939 85.2871 156.728 85.3243 156.53 85.4019C156.332 85.4795 156.152 85.5959 156 85.7442C155.848 85.8926 155.727 86.0699 155.644 86.2656C155.562 86.4614 155.519 86.6717 155.519 86.8842L155.57 102.076C155.57 102.498 155.737 102.903 156.036 103.201C156.334 103.5 156.739 103.667 157.161 103.667L172.403 103.627C172.615 103.627 172.824 103.585 173.019 103.503C173.214 103.421 173.391 103.301 173.54 103.15C173.688 102.999 173.804 102.82 173.883 102.624C173.961 102.427 173.999 102.217 173.995 102.005L173.713 87.2066ZM173.881 111.791C173.887 111.377 173.729 110.977 173.441 110.68C173.153 110.382 172.758 110.212 172.344 110.205L157.134 109.966C156.72 109.96 156.321 110.118 156.023 110.406C155.726 110.694 155.555 111.089 155.549 111.503L155.311 126.632C155.304 127.046 155.463 127.446 155.751 127.743C156.039 128.041 156.434 128.211 156.848 128.218L172.057 128.457C172.472 128.463 172.871 128.305 173.169 128.017C173.466 127.729 173.637 127.334 173.643 126.92L173.881 111.791ZM64.503 111.84C64.5018 111.614 64.4561 111.39 64.3685 111.181C64.2808 110.973 64.1529 110.784 63.9921 110.625C63.8313 110.465 63.6408 110.34 63.4313 110.254C63.2219 110.169 62.9976 110.125 62.7714 110.126L47.9629 110.204C47.7367 110.205 47.5129 110.251 47.3044 110.338C47.0958 110.426 46.9066 110.554 46.7475 110.715C46.5883 110.876 46.4624 111.066 46.377 111.276C46.2915 111.485 46.2481 111.709 46.2493 111.936L46.3264 126.663C46.3276 126.89 46.3733 127.113 46.461 127.322C46.5486 127.531 46.6765 127.72 46.8373 127.879C46.9981 128.038 47.1887 128.164 47.3981 128.249C47.6076 128.335 47.8318 128.378 48.058 128.377L62.8665 128.3C63.0927 128.298 63.3165 128.253 63.5251 128.165C63.7336 128.077 63.9228 127.949 64.082 127.789C64.2411 127.628 64.367 127.437 64.4525 127.228C64.538 127.018 64.5814 126.794 64.5802 126.568L64.503 111.84ZM124.521 115.456C124.519 115.087 124.37 114.734 124.108 114.475C123.846 114.216 123.492 114.071 123.123 114.073L99.6915 114.196C99.3228 114.198 98.97 114.346 98.7107 114.608C98.4514 114.87 98.3068 115.224 98.3087 115.593L98.4316 139.065C98.4335 139.434 98.5819 139.787 98.8439 140.046C99.106 140.305 99.4604 140.45 99.829 140.448L123.261 140.325C123.629 140.323 123.982 140.175 124.242 139.913C124.501 139.651 124.645 139.296 124.644 138.928L124.521 115.456Z" fill="#3740D3"/>
</svg>

<svg xmlns="http://www.w3.org/2000/svg" width="220" height="160" fill="none">
  <path fill="#3740D3" d="M72.702 37.955c.302-4.936-.172-9.751-.282-14.667-.071-3.023-2.438-4.705-2.912-6.559-.55-2.169-.339-4.227.635-6.175.181-.37.48-.554.896-.554l79.957.01c1.135 0 1.79.558 1.965 1.672.473 3.043.352 5.45-2.237 7.626a1.984 1.984 0 0 0-.705 1.521l-.081 16.582c0 .752.373 1.165 1.119 1.24 2.135.22 4.462.332 6.981.332 9.154 0 18.307.033 27.461.1 3.969.02 3.828 3.486 3.818 6.83-.06 30.041.007 60.088.202 90.142.02 3.17 1.011 4.93 2.972 5.279 1.705.309 2.542 1.33 2.508 3.062l-.081 3.778c-.026 1.585-.832 2.377-2.417 2.377l-165.243.071c-1.545 0-2.297-.769-2.256-2.307l.11-4.584a2.664 2.664 0 0 1 .692-1.721 2.639 2.639 0 0 1 1.646-.847l2.568-.323c.397-.047.595-.272.595-.675l.05-97.304a3.637 3.637 0 0 1 3.607-3.636 6026.76 6026.76 0 0 1 33.465-.212c1.209-.007 2.666-.148 4.372-.423.37-.054.568-.266.595-.635Zm31.307-1.933a1.188 1.188 0 0 0-1.168-1.21l-16.015-.28a1.19 1.19 0 0 0-1.209 1.169l-.28 16.075a1.19 1.19 0 0 0 1.167 1.21l16.015.279a1.193 1.193 0 0 0 1.111-.715 1.2 1.2 0 0 0 .099-.453l.28-16.075Zm32.949-.078a1.253 1.253 0 0 0-1.241-1.258l-15.795-.11a1.249 1.249 0 0 0-1.258 1.24l-.11 15.776a1.248 1.248 0 0 0 1.24 1.257l15.796.11a1.248 1.248 0 0 0 1.257-1.24l.111-15.775Zm-72.65 25.81a1.784 1.784 0 0 0-1.787-1.78L47.954 60a1.784 1.784 0 0 0-1.78 1.786l.026 14.546a1.783 1.783 0 0 0 1.786 1.78l14.567-.025a1.782 1.782 0 0 0 1.78-1.786l-.026-14.547Zm72.593-.341a1.23 1.23 0 0 0-1.242-1.216l-15.835.165a1.233 1.233 0 0 0-1.128.77c-.06.15-.09.31-.089.472l.165 15.674a1.227 1.227 0 0 0 1.241 1.216l15.836-.165a1.228 1.228 0 0 0 1.216-1.242l-.164-15.674Zm36.963-.01a1.27 1.27 0 0 0-1.256-1.283l-15.714-.165a1.27 1.27 0 0 0-1.283 1.256l-.162 15.493a1.27 1.27 0 0 0 1.256 1.283l15.714.164a1.27 1.27 0 0 0 1.283-1.256l.162-15.492Zm-70.125.7a1.612 1.612 0 0 0-1.581-1.592l-14.91-.293a1.612 1.612 0 0 0-1.642 1.612l-.03 14.92a1.612 1.612 0 0 0 1.612 1.612l15.121.01a1.609 1.609 0 0 0 1.495-1.01c.08-.197.119-.409.117-.622l-.182-14.638Zm.173 24.513a1.775 1.775 0 0 0-1.761-1.785l-14.808-.104a1.773 1.773 0 0 0-1.786 1.76l-.103 14.789a1.771 1.771 0 0 0 1.76 1.785l14.809.104a1.774 1.774 0 0 0 1.785-1.761l.104-14.788Zm33.244.354a2.116 2.116 0 0 0-2.082-2.148l-14.303-.225a2.116 2.116 0 0 0-2.149 2.082l-.226 14.424a2.114 2.114 0 0 0 2.082 2.149l14.303.224a2.107 2.107 0 0 0 1.505-.596 2.116 2.116 0 0 0 .643-1.486l.227-14.424Zm-90.939 15.025a1.603 1.603 0 0 0 1.602 1.602l15.07.03a1.603 1.603 0 0 0 1.602-1.642l-.332-15.02a1.602 1.602 0 0 0-1.602-1.572l-14.738.02a1.602 1.602 0 0 0-1.602 1.602v14.98Zm127.496-14.788a1.593 1.593 0 0 0-1.552-1.562l-15.01-.352a1.59 1.59 0 0 0-1.632 1.591l.051 15.192a1.588 1.588 0 0 0 1.591 1.591l15.242-.04a1.587 1.587 0 0 0 1.137-.477 1.598 1.598 0 0 0 .455-1.145l-.282-14.798Zm.168 24.584a1.564 1.564 0 0 0-1.537-1.586l-15.21-.239a1.56 1.56 0 0 0-1.585 1.537l-.238 15.129a1.56 1.56 0 0 0 1.537 1.586l15.209.239a1.56 1.56 0 0 0 1.586-1.537l.238-15.129Zm-109.378.049a1.729 1.729 0 0 0-.51-1.215 1.718 1.718 0 0 0-1.222-.499l-14.808.078a1.73 1.73 0 0 0-1.215.511 1.717 1.717 0 0 0-.499 1.221l.077 14.727a1.723 1.723 0 0 0 1.732 1.714l14.809-.077a1.733 1.733 0 0 0 1.215-.511 1.731 1.731 0 0 0 .498-1.221l-.077-14.728Zm60.018 3.616a1.39 1.39 0 0 0-1.398-1.383l-23.431.123a1.39 1.39 0 0 0-1.383 1.397l.123 23.472a1.39 1.39 0 0 0 1.397 1.383l23.432-.123a1.393 1.393 0 0 0 1.383-1.397l-.123-23.472Z"/>
</svg>
